X:1
T:Title
%%score { 1 | 2 }
L:1/8
M:3/4
K:Ab
V:1 treble nm="Grand Piano"
V:2 bass 
V:1
 z2 z2[Q:1/4=100] [Ec]>[Fd] | [Ec]3 [DB] [Ec]>[DB] | [CA]4 [FA]>[DF] | [CE]3 [EA] [=DB]>[Dc] | %4
[M:2/4] [EB]4 |[M:1/4] [Ec]>[Fd] |[M:3/4] [Ec]3 [DB] [Ec]>[GB] | [FA]4 [FA]>F | E3 A B>c | %9
[M:2/4] [A,CA]4 |[M:1/4] G>A |[M:3/4] B3 =A B>_c | c4 B>c | d3 c d>=d |[M:2/4] e4 | %15
[M:1/4] [Ece]>[EBd] |[M:3/4] [EAc]3 [DAB] [EGc]>[DGB] | [CFA]4 [DFA]>F | E3 A B>c |[M:2/4] [CA]4 |] %20
V:2
 z2 z2 [A,,A,]>[A,,A,] | [A,,A,]3 [A,,A,] [E,G,]>[E,G,] | [A,,A,]4 [D,A,]>[D,A,] | %3
 [A,,A,]3 [C,A,] [B,,A,]>[B,,A,] |[M:2/4] [E,G,]4 |[M:1/4] [A,,A,]>[A,,A,] | %6
[M:3/4] [A,,A,]3 [A,,A,] [E,G,]>[E,D] | [F,C]4 [D,D]>[D,A,D] | [E,A,C]3 [E,A,C] [E,G,D]>[E,G,E] | %9
[M:2/4] A,,4 |[M:1/4] B,>[K:treble]C |[M:3/4] D3 C D>=D | E4 G>A | B3 =A B>_c |[M:2/4] c4 | %15
[M:1/4][K:bass] A,>A, |[M:3/4] A,3 A, E,>E, | F,4 D,>[D,A,D] | [E,A,C]3 [E,A,C] [E,G,D]>[E,G,E] | %19
[M:2/4] [A,,A,]4 |] %20

